X:1
T:Title
%%score { 1 | 2 }
L:1/8
Q:1/4=100
M:4/4
K:G
V:1 treble nm="Grand Piano"
V:2 bass 
V:1
 G3- G/A/ G>D G>B | d4 B4 | [CFA]3- [CFA]/[DGB]/ [CFA]>[CD] [DFB]>[CFA] | G6 z2 | %4
w: W.~J.~Kirkpatrick * * * * * *||||
 G3- G/A/ G>D G>B | d4 [DB]4 | [DA]3- [DA]/[DA]/ [^CB]>[CA] [CB]>[CA] |[M:3/4] D6 |[M:1/4] D>D | %9
w: |||||
[M:4/4] [Fc]4 [FA]2 [Fd]>[Fc] | B4 G2 D>D | G2 G2 B>B A>G |[M:3/4] [Fd]6 |[M:1/4] B>c | %14
w: |||||
[M:4/4] d4 B2 G>G |[M:9/8] [Gc]3- [Gc] [Ge]2- [Ge][Ge]>[Ge] | %16
w: ||
[M:4/4] [Gd]2 [Gd]2 [Fd]>[Fc] [FB]>[FA] | [B,DG]6 z2 |] %18
w: ||
V:2
 [G,B,D]3- [G,B,D]/[G,CD]/ [G,B,D]>[G,B,][K:treble] [G,B,D]>[G,DG] | [G,B,G]4 [G,DG]4 | %2
 D,3- D,/D,/ D,>D, D,>D, | [G,B,D]6 z2 | %4
 [G,B,D]3- [G,B,D]/[G,D]/ [G,B,D]>[G,B,][K:treble] [G,B,D]>[G,DG] | [G,B,G]4[K:bass] [G,,G,]4 | %6
 [A,,F,]3- [A,,F,]/[A,,F,]/ [A,,G,]>[A,,G,] [A,,G,]>[A,,G,] |[M:3/4] [D,F,]6 | %8
[M:1/4] [D,F,]>[D,F,] |[M:4/4] [D,A,]4 [D,D]2 [D,A,]>[D,D] | [G,DG]4 [G,B,D]2 [G,B,]>[G,B,] | %11
 [G,B,D]2 [G,B,D]2 [G,DG]>[G,DG][K:bass] [F,A,D]>[E,A,] |[M:3/4] [D,A,]6 | %13
[M:1/4][K:treble] [G,G]>[G,A,G] |[M:4/4] [G,B,G]4 [G,DG]2 [G,B,D]>[K:bass][=F,B,D] | %15
[M:9/8] [E,C]3- [E,C] [C,C]2- [C,C][C,C]>[C,C] |[M:4/4] [D,B,]2 [D,B,]2 [D,A,]>[D,A,] [D,D]>[D,C] | %17
 [G,,G,]6 z2 |] %18

